public/library/learning-heroes-text-dark.svg

<svg width="122" height="32" viewBox="0 0 122 32" fill="none" xmlns="http://www.w3.org/2000/svg"><path d="M4.5568 11.6416H13.6704V15.0592H0V0.246399H4.5568V11.6384V11.6416Z" fill="white"/><path d="M29.168 3.664H20.0544V5.9424H29.168V9.36H20.0544V11.6384H29.168V15.056H15.4976V0.246399H29.168V3.664Z" fill="white"/><path d="M41.472 13.2352H35.7984L35.0912 15.0592H30.08L36.1184 0.246399H41.1296L47.168 15.056H42.1568C42.1568 15.056 41.8848 14.2816 41.472 13.232V13.2352ZM39.7632 8.7904C38.8064 6.24 38.8512 3.664 38.8512 3.664H38.3968C38.3968 3.664 38.4864 6.2624 37.4848 8.7904L37.0976 9.8144H40.1728C40.0352 9.4496 39.9008 9.1072 39.7632 8.7904Z" fill="white"/><path d="M61.8656 15.0592H57.3088C57.3088 12.9408 57.2864 12.1888 56.8544 11.1872C56.2848 9.8208 55.1456 9.3632 53.664 9.3632H52.4096V15.0592H47.8528V0.246399H56.192C60.4992 0.246399 61.6384 2.1824 61.6384 4.2336C61.6384 5.9424 60.2272 7.3088 56.8544 7.3088H55.8304V7.7632C61.6416 7.7632 61.8688 12.208 61.8688 15.056L61.8656 15.0592ZM52.4096 6.1728H55.44C56.3072 6.1728 57.0816 5.7856 57.0816 4.9184C57.0816 4.0512 56.3072 3.664 55.44 3.664H52.4096V6.1696V6.1728Z" fill="white"/><path d="M79.4368 15.0592H74.8576L71.6672 10.7968L66.448 3.8944H65.9936C65.9936 3.8944 68.0448 6.288 68.0448 9.136V15.0592H63.4656V0.246399H68.0224L68.0448 0.223999V0.246399L76.4768 11.4112H76.9312C76.9312 11.4112 74.88 9.0176 74.88 6.1696V0.246399H79.4368V15.056V15.0592Z" fill="white"/><path d="M85.8176 0.246399V15.056H81.2608V0.246399H85.8176Z" fill="white"/><path d="M103.613 15.0592H99.0336L95.8432 10.7968L90.624 3.8944H90.1696C90.1696 3.8944 92.2208 6.288 92.2208 9.136V15.0592H87.6416V0.246399H92.1984L92.2208 0.223999V0.246399L100.653 11.4112H101.107C101.107 11.4112 99.056 9.0176 99.056 6.1696V0.246399H103.613V15.056V15.0592Z" fill="white"/><path d="M121.728 15.0592H117.354C117.264 15.0592 117.171 14.9696 117.171 14.8544C117.171 14.7648 117.194 14.672 117.261 14.6272C118.045 13.9968 118.582 13.1392 118.928 12.3296H118.426C117.424 14.3456 115.28 15.264 112.726 15.264C109.194 15.264 105.206 12.416 105.206 7.632C105.206 3.4848 108.259 0 113.843 0C117.581 0 120.246 1.3664 121.27 3.8496L116.963 5.5136C116.371 4.192 115.437 3.4176 113.866 3.4176C111.587 3.4176 109.994 5.0368 109.994 7.632C109.994 10.2272 111.475 11.8464 113.754 11.8464C115.325 11.8464 116.512 11.184 116.694 10.4576H113.754V7.0624H121.728V15.0592Z" fill="white"/><path d="M42.64 31.7696H38.0832V26.0736H31.248V31.7696H26.6912V16.96H31.248V22.656H38.0832V16.96H42.64V31.7696Z" fill="white"/><path d="M58.1376 20.3776H49.024V22.656H58.1376V26.0736H49.024V28.352H58.1376V31.7696H44.4672V16.96H58.1376V20.3776Z" fill="white"/><path d="M73.9744 31.7696H69.4176C69.4176 29.6512 69.3952 28.8992 68.9632 27.8976C68.3936 26.5312 67.2544 26.0736 65.7728 26.0736H64.5184V31.7696H59.9616V16.96H68.3008C72.608 16.96 73.7472 18.896 73.7472 20.9472C73.7472 22.656 72.336 24.0224 68.9632 24.0224H67.9392V24.4768C73.7504 24.4768 73.9776 28.9216 73.9776 31.7696H73.9744ZM64.5184 22.8832H67.5488C68.416 22.8832 69.1904 22.496 69.1904 21.6288C69.1904 20.7616 68.416 20.3744 67.5488 20.3744H64.5184V22.88V22.8832Z" fill="white"/><path d="M74.2048 24.3648C74.2048 20.2176 77.2576 16.7328 82.8416 16.7328C88.4256 16.7328 91.5232 20.2176 91.5232 24.3648C91.5232 28.512 88.4256 31.9968 82.8416 31.9968C77.2576 31.9968 74.2048 28.512 74.2048 24.3648ZM82.8608 20.1472C80.5824 20.1472 78.9888 21.7664 78.9888 24.3616C78.9888 26.9568 80.5824 28.576 82.8608 28.576C85.1392 28.576 86.6208 26.9568 86.6208 24.3616C86.6208 21.7664 85.1392 20.1472 82.8608 20.1472Z" fill="white"/><path d="M106.326 20.3776H97.2128V22.656H106.326V26.0736H97.2128V28.352H106.326V31.7696H92.656V16.96H106.326V20.3776Z" fill="white"/><path d="M121.728 27.2128C121.728 30.7456 117.99 31.9968 114.573 31.9968C111.658 31.9968 108.717 31.0848 107.146 30.0608C108.739 26.9856 107.35 29.7184 108.947 26.6432C109.814 27.2128 112.138 28.2368 114.416 28.2368C116.285 28.2368 117.174 27.872 117.174 26.9824C117.152 24.4768 107.834 27.0976 107.834 21.4016C107.834 18.3264 110.432 16.7296 114.122 16.7296C117.219 16.7296 119.341 17.5488 121.277 18.688C119.683 21.7408 119.658 21.7408 119.658 21.7408C117.29 19.9168 112.39 19.4624 112.39 21.2864C112.39 23.4752 121.731 21.4016 121.731 27.2096L121.728 27.2128Z" fill="white"/></svg>

<svg xmlns="http://www.w3.org/2000/svg" width="122" height="32" fill="none" viewBox="0 0 122 32"><path fill="#fff" d="M4.557 11.642h9.113v3.417H0V.246h4.557v11.396M29.168 3.664h-9.114v2.278h9.114V9.36h-9.114v2.278h9.114v3.418h-13.67V.246h13.67zM41.472 13.235h-5.674l-.707 1.824H30.08L36.118.246h5.012l6.038 14.81h-5.011s-.272-.774-.685-1.824zM39.763 8.79c-.957-2.55-.912-5.126-.912-5.126h-.454s.09 2.598-.912 5.126l-.387 1.024h3.075a23 23 0 0 0-.41-1.024M61.866 15.06h-4.557c0-2.12-.023-2.871-.455-3.873-.57-1.366-1.708-1.824-3.19-1.824H52.41v5.696h-4.557V.246h8.339c4.307 0 5.446 1.936 5.446 3.988 0 1.708-1.41 3.075-4.784 3.075H55.83v.454c5.812 0 6.039 4.445 6.039 7.293zM52.41 6.172h3.03c.867 0 1.642-.387 1.642-1.255s-.775-1.254-1.642-1.254h-3.03v2.509M79.437 15.06h-4.58l-3.19-4.263-5.219-6.903h-.454s2.05 2.394 2.05 5.242v5.923h-4.578V.246h4.556l.023-.022v.022l8.432 11.165h.454S74.88 9.018 74.88 6.17V.246h4.557V15.06M85.818.246v14.81H81.26V.246zM103.613 15.06h-4.58l-3.19-4.263-5.219-6.903h-.454s2.05 2.394 2.05 5.242v5.923h-4.578V.246h4.556l.023-.022v.022l8.432 11.165h.454s-2.051-2.393-2.051-5.241V.246h4.557V15.06M121.728 15.06h-4.374c-.09 0-.183-.09-.183-.206 0-.09.023-.182.09-.227.784-.63 1.321-1.488 1.667-2.297h-.502c-1.002 2.016-3.146 2.934-5.7 2.934-3.532 0-7.52-2.848-7.52-7.632 0-4.147 3.053-7.632 8.637-7.632 3.738 0 6.403 1.366 7.427 3.85l-4.307 1.664c-.592-1.322-1.526-2.096-3.097-2.096-2.279 0-3.872 1.619-3.872 4.214s1.481 4.214 3.76 4.214c1.571 0 2.758-.662 2.94-1.388h-2.94V7.062h7.974zM42.64 31.77h-4.557v-5.696h-6.835v5.696h-4.557V16.96h4.557v5.696h6.835V16.96h4.557zM58.138 20.378h-9.114v2.278h9.114v3.418h-9.114v2.278h9.114v3.418h-13.67V16.96h13.67zM73.974 31.77h-4.556c0-2.119-.023-2.87-.455-3.872-.57-1.367-1.709-1.824-3.19-1.824h-1.255v5.696h-4.556V16.96H68.3c4.307 0 5.446 1.936 5.446 3.987 0 1.709-1.411 3.075-4.784 3.075H67.94v.455c5.811 0 6.039 4.445 6.039 7.293zm-9.456-8.887h3.03c.868 0 1.642-.387 1.642-1.254s-.774-1.255-1.641-1.255h-3.03v2.509M74.205 24.365c0-4.147 3.053-7.632 8.637-7.632s8.681 3.485 8.681 7.632-3.097 7.632-8.681 7.632-8.637-3.485-8.637-7.632m8.656-4.218c-2.279 0-3.872 1.62-3.872 4.215s1.593 4.214 3.872 4.214 3.76-1.62 3.76-4.214c0-2.596-1.482-4.215-3.76-4.215M106.326 20.378h-9.113v2.278h9.113v3.418h-9.113v2.278h9.113v3.418h-13.67V16.96h13.67zM121.728 27.213c0 3.533-3.738 4.784-7.155 4.784-2.915 0-5.856-.912-7.427-1.936 1.593-3.075.204-.343 1.801-3.418.867.57 3.191 1.594 5.469 1.594 1.869 0 2.758-.365 2.758-1.255-.022-2.505-9.34.116-9.34-5.58 0-3.076 2.598-4.672 6.288-4.672 3.097 0 5.219.819 7.155 1.958-1.594 3.053-1.619 3.053-1.619 3.053-2.368-1.824-7.268-2.279-7.268-.455 0 2.19 9.341.116 9.341 5.924z"/></svg>
